X:1
T:Title
%%score { ( 1 3 ) | 2 }
L:1/8
M:3/4
K:F
V:1 treble nm="Grand Piano"
V:3 treble 
V:2 bass 
V:1
 z2 z2[Q:1/4=76] AA | c3 [DEB] [CEA][B,EG] | A4 AA | B3 B AG | c4 cc | d3 c A[CF] | %6
 [B,D]4 [DB][DFB] | [CFA]3 [A,CF] [G,B,F][G,B,E] | [A,F]4[K:bass] [F,^CF][G,CE] | %9
 [F,D]3 [G,CE] [F,CF][K:treble]G | F4 FF | A3 A GF | [Dd]4 [DGd][D^Fd] | %13
 [=B,Fd]3 [B,FG] [CEA][CEG] | [Cc]2 [DA]2 [DB][DFB] | [CFA]3 F FE |[M:2/4] F4 |] %17
V:2
 z2 z2 [F,CF][F,CF] | [G,B,E]3 C, C,C, | [F,A,C]4 [F,A,C][K:treble][F,CF] | %3
 [G,CE]3 [G,CE] [CE][B,CE] | [A,CF]4 [A,CF][K:bass][G,B,E] | [F,A,F]3 [F,A,F] [F,CF]A,, | %6
 B,,4 G,,G,, | C,3 C, C,C, | F,4 A,,A,, | B,,3 B,, A,,[C,E,C] | [F,A,C]4 [F,A,C][F,A,_E] | %11
 [F,C_E]3 [F,CE] [F,B,E][F,A,E] | [B,,B,]4 B,,A,, | G,,3 G,, C,B,, | A,,2 D,2 G,,G,, | %15
 C,3 [C,A,C] [C,G,B,][C,G,B,] |[M:2/4] [F,A,]4 |] %17
V:3
 x6 | x6 | x6 | x6 | x6 | x6 | x6 | x6 | x4[K:bass] x2 | x5[K:treble] x | x6 | x6 | x6 | x6 | %14
 F4 z2 | x6 |[M:2/4] x4 |] %17

